app/images/ben-03-lock.svg

<?xml version="1.0" encoding="UTF-8" standalone="no"?>
<svg width="58px" height="94px" viewBox="0 0 58 94" version="1.1" xmlns="http://www.w3.org/2000/svg" xmlns:xlink="http://www.w3.org/1999/xlink">
    <!-- Generator: Sketch 40 (33762) - http://www.bohemiancoding.com/sketch -->
    <title>ben-03-lock</title>
    <desc>Created with Sketch.</desc>
    <defs></defs>
    <g id="Page-1" stroke="none" stroke-width="1" fill="none" fill-rule="evenodd">
        <g id="ben-03-lock" transform="translate(-1.000000, -1.000000)" fill="#000000">
            <path d="M29.8470588,7.33090909 L30.3676471,7.33090909 C39.5647059,7.33090909 47.0264706,13.44 47.0264706,20.9454545 L52.9264706,20.9454545 C52.9264706,10.1236364 42.8617647,1.39636364 30.3676471,1.39636364 L29.8470588,1.39636364 C17.3529412,1.39636364 7.28823529,10.1236364 7.28823529,20.9454545 L7.28823529,41.7163636 C3.47058824,45.9054545 1.04117647,51.3163636 1.04117647,57.0763636 L1.04117647,69.8181818 C1.04117647,83.4327273 13.8823529,94.6036364 29.6735294,94.6036364 L30.3676471,94.6036364 C46.1588235,94.6036364 59,83.4327273 59,69.8181818 L59,57.0763636 C59,43.4618182 46.1588235,32.2909091 30.3676471,32.2909091 L29.6735294,32.2909091 C23.4264706,32.2909091 17.7,34.0363636 13.0147059,36.8290909 L13.0147059,20.9454545 C13.0147059,13.44 20.65,7.33090909 29.8470588,7.33090909 L29.8470588,7.33090909 Z M29.6735294,38.2254545 L30.3676471,38.2254545 C42.8617647,38.2254545 53.1,46.6036364 53.1,57.0763636 L53.1,69.8181818 C53.1,80.1163636 42.8617647,88.6690909 30.3676471,88.6690909 L29.6735294,88.6690909 C17.1794118,88.6690909 6.94117647,80.2909091 6.94117647,69.8181818 L6.94117647,57.0763636 C6.94117647,46.7781818 17.1794118,38.2254545 29.6735294,38.2254545 L29.6735294,38.2254545 Z" id="Shape"></path>
            <polygon id="Shape" points="27.0705882 56.0290909 32.9705882 56.0290909 32.9705882 72.7854545 27.0705882 72.7854545"></polygon>
        </g>
    </g>
</svg>

<?xml version="1.0" encoding="utf-8"?>
<!-- Generator: Adobe Illustrator 16.0.0, SVG Export Plug-In . SVG Version: 6.00 Build 0)  -->
<!DOCTYPE svg PUBLIC "-//W3C//DTD SVG 1.1//EN" "http://www.w3.org/Graphics/SVG/1.1/DTD/svg11.dtd">
<svg version="1.1" id="Layer_1" xmlns="http://www.w3.org/2000/svg" xmlns:xlink="http://www.w3.org/1999/xlink" x="0px" y="0px"
	 width="58px" height="94px" viewBox="0 0 58 94" enable-background="new 0 0 58 94" xml:space="preserve">
<title>ben-03-lock</title>
<desc>Created with Sketch.</desc>
<g id="Page-1">
	<g id="ben-03-lock" transform="translate(-1.000000, -1.000000)">
		<path id="Shape" fill="#333366" d="M29.847,7.331h0.521c9.197,0,16.659,6.109,16.659,13.614h5.899
			c0-10.822-10.064-19.549-22.558-19.549h-0.521c-12.494,0-22.559,8.727-22.559,19.549v20.771c-3.817,4.189-6.247,9.6-6.247,15.36
			v12.742c0,13.614,12.841,24.785,28.632,24.785h0.694C46.158,94.604,59,83.433,59,69.818V57.076
			c0-13.614-12.842-24.785-28.632-24.785h-0.694c-6.247,0-11.973,1.745-16.659,4.538V20.945C13.015,13.44,20.65,7.331,29.847,7.331
			L29.847,7.331z M29.673,38.226h0.694c12.494,0,22.732,8.378,22.732,18.851v12.742c0,10.298-10.238,18.851-22.732,18.851h-0.694
			c-12.494,0-22.732-8.378-22.732-18.851V57.076C6.941,46.778,17.179,38.226,29.673,38.226L29.673,38.226z"/>
		<polygon id="Shape_1_" fill="#333366" points="27.071,56.029 32.971,56.029 32.971,72.785 27.071,72.785 		"/>
	</g>
</g>
</svg>
